X:79
T:T048- Will you go to Flanders (later, Gramachree Molly)
S:Oswald's CPC, bk 1, c 1743
Q:1/4=120
L:1/4
M:C
K:G
G/|G/d/d/d/ {e/4f/4}d|d/4B3/4 (A3/4G/4)A3/2d/4e/4 f/|\
(g/f/g/)a/fe3/4d/4|(e3/4f/4)e3/4d/4d(e/4f/4)|g/f/g/a/fe3/4d/4|\
e/g/ {e/}d/B/d(e3/4f/4)|(g/f/)(e/d/)e{e/f/4}g|\
d/4B3/4 A3/4G/4 G3/2::G|/
GA/(B/4d/4) (e{e/4f/4}g|E{d/}c/(B/4A/4)G3/2d/|g/ba/4g/4fe3/4d/4|\
Be3/4d/4d3/2G/|g3/ (3 b/4a/4g/4 f(3a/4g/4f/4|\
e/g/ {e/4}d/B/d3/2G/|g3/2 (3 f/4e/4d/4e {e/4f/4}g|\
(d/4B3/4 A3/4G/4G3/2|]

